app/images/qwik-logo.svg

<svg fill="none" height="50" viewBox="0 0 47 50" width="47" xmlns="http://www.w3.org/2000/svg"><path d="m40.973 49.535-8.8869-8.8366-.1358.0194v-.0969l-18.8992-18.6614 4.6569-4.4959-2.7359-15.69651-12.98107 16.08411c-2.212022 2.2285-2.619497 5.8523-1.028395 8.5265l8.110735 13.4487c1.24183 2.0735 3.49263 3.3137 5.91813 3.2943l4.0166-.0387z" fill="#18b6f6"/><path d="m45.8232 17.5412-1.7852-3.2943-.9314-1.686-.3686-.6588-.0388.0387-4.8898-8.46836c-1.2224-2.13163-3.512-3.4493713-5.9957-3.4299928l-4.2882.1162658-12.7871.038759c-2.4254.019379-4.6374 1.298358-5.85987 3.371858l-7.78087 15.42527 13.91244-17.26622 18.2395 20.03732-3.2405 3.275 1.9404 15.6771.0194-.0387v.0387h-.0388l.0388.0388 1.5135 1.4728 7.354 7.1894c.3105.2906.815-.0582.6015-.4264l-4.5404-8.9334 7.9167-14.6308.2522-.2906c.097-.1163.194-.2326.2717-.3489 1.5523-2.1122 1.7657-4.9415.4851-7.2475z" fill="#ac7ef4"/><path d="m33.3076 21.6882-18.2977-19.9404 2.6001 15.619-4.6569 4.5152 18.9574 18.8165-1.7075-15.619z" fill="#fff"/></svg>

<svg width="47" height="50" viewBox="0 0 47 50" fill="none" xmlns="http://www.w3.org/2000/svg">
<path d="M40.973 49.535L32.0861 40.6984L31.9503 40.7178V40.6209L13.0511 21.9595L17.708 17.4636L14.9721 1.76709L1.99103 17.8512C-0.220992 20.0797 -0.628467 23.7035 0.962635 26.3777L9.07337 39.8264C10.3152 41.8999 12.566 43.1401 14.9915 43.1207L19.0081 43.082L40.973 49.535Z" fill="#18B6F6"/>
<path d="M45.8232 17.5412L44.038 14.2469L43.1066 12.5609L42.738 11.9021L42.6992 11.9408L37.8094 3.47244C36.587 1.34081 34.2974 0.0230687 31.8137 0.0424472L27.5255 0.158713L14.7384 0.197472C12.313 0.216851 10.101 1.49583 8.87853 3.56933L1.09766 18.9946L15.0101 1.72838L33.2496 21.7657L30.0091 25.0407L31.9495 40.7178L31.9689 40.6791V40.7178H31.9301L31.9689 40.7566L33.4824 42.2294L40.8364 49.4188C41.1469 49.7094 41.6514 49.3606 41.4379 48.9924L36.8975 40.059L44.8142 25.4282L45.0664 25.1376C45.1634 25.0213 45.2604 24.905 45.3381 24.7887C46.8904 22.6765 47.1038 19.8472 45.8232 17.5412Z" fill="#AC7EF4"/>
<path d="M33.3076 21.6882L15.0099 1.7478L17.61 17.3668L12.9531 21.882L31.9105 40.6985L30.203 25.0795L33.3076 21.6882Z" fill="white"/>
</svg>
